X: 356
T: The Boys of Glanlough
M:C
L:1/8
B:O'Neill's 356
N:"Spirited."
N:"collected by F. O'Neill"
Z:Transcribed by Chris Falt, cfalt@trytel.com
K:Gm
(G/2A/2) \
| B>cdg ce dc/2A/2 | G>BAG F3(G/2A/2) | B>cd=e fdc_e | dgg^f g3(G/2A/2) |
B>cdg ce dc/2A/2 | G>BAG F3G/2A/2 | B>cdg gddB | ({d}c>)BGG G2z ||
(G/2A/2) \
| B>ABc d>edc | db a/2g/2f/2a/2 g3(G/2A/2) | B>ABc d2g>f | d>edc B2cd |
dggf dB({d}c)A | G>BAG F3(G/2A/2) | B>cdg gddB | ({d}c>)BGG G2z ||


